X:1
T:Title
%%score { ( 1 3 ) | ( 2 4 ) }
L:1/8
Q:1/4=120
M:4/4
K:F
V:1 treble nm="Grand Piano"
V:3 treble 
V:2 bass 
V:4 bass 
V:1
 D2 D2 F2 G2 | A4 A4 | G2 A2 B2 d2 | ^c2 B2 ABAG |[M:2/4] A4 |[M:4/4] D2 D2 F2 G2 | A4 A4 | %7
w: ????~???? * * *|||||||
 G2 A2 B2 d2 | ^c2 B2 ABAG |[M:2/4] A4 |[M:4/4] AGGF FEED | [DA]4 [DA]4 | E2 z2[K:treble] F2 E2 | %13
w: ||||||
 FED^C D4 | GFFE EDD^C | [DA]4 [DA]4 | E2 z2[K:treble] F2 E2 | FED^C D4 | d2 d2 d2 dd | %19
w: ||||||
 [Dd]4 AB c2 | cccB dcBA | cBAG [DA]4 | d2 d2 d2 dd | [Dd]4 AB c2 | cccB dcBA | cBAG [DA]4 | %26
w: |||||||
 AGGF FEED | [DA]4 [DA]4 | E2 z2[K:treble] F2 E2 | FED^C D4 | GFFE EDD^C | [DA]4 [DA]4 | %32
w: ||||||
 E2 z2[K:treble] F2 E2 |[M:8/4] FED^C D4 z8 |] %34
w: ||
V:2
 [D,F,A,]4 [D,F,A,D]4 | [D,F,A,D]4 [D,F,A,D]4 | [D,G,B,D]4 [D,G,B,D]4 | [D,G,B,D]4 [D,F,A,D]4 | %4
[M:2/4] [D,F,A,D]4 |[M:4/4] [D,F,A,]4 [D,F,A,D]4 | [D,F,A,D]4 [D,F,A,D]4 | [D,G,B,D]4 [D,G,B,D]4 | %8
 [D,G,B,D]4 [D,F,A,D]4 |[M:2/4] [D,F,A,D]4 |[M:4/4] [B,,D,G,]4 [B,,D,G,]4 | [A,,D,F,]4 [A,,D,F,]4 | %12
 z2 G2 [A,,E,G,]4 | [A,,D,F,A,]4 [A,,D,F,A,]4 | [B,,D,G,B,]4 [B,,D,G,B,]4 | [A,,D,F,]4 [A,,D,F,]4 | %16
 z2 G2 [A,,E,G,]4 | [A,,D,F,A,]4 [A,,D,F,A,]4 | [A,,D,F,]4 [B,,D,G,]4 | [A,,D,F,]4 [A,,D,F,]4 | %20
 [B,,D,G,]4 [B,,D,G,]4 | [A,,D,F,]4 [A,,D,F,]4 | [A,,D,F,]4 [B,,D,G,]4 | [A,,D,F,]4 [A,,D,F,]4 | %24
 [B,,D,G,]4 [B,,D,G,]4 | [A,,D,F,]4 [A,,D,F,]4 | [B,,D,G,]4 [B,,D,G,]4 | [A,,D,F,]4 [A,,D,F,]4 | %28
 z2 G2 [A,,E,G,]4 | [A,,D,F,A,]4 [A,,D,F,A,]4 | [B,,D,G,B,]4 [B,,D,G,B,]4 | [A,,D,F,]4 [A,,D,F,]4 | %32
 z2 G2 [A,,E,G,]4 |[M:8/4] [A,,D,F,A,]4 [A,,D,F,A,]4 z8 |] %34
V:3
 x8 | x8 | x8 | x8 |[M:2/4] x4 |[M:4/4] x8 | x8 | x8 | x8 |[M:2/4] x4 |[M:4/4] D4 D4 | x8 | %12
 [E,G,^C]4[K:treble] C4 | x8 | x8 | x8 | [E,G,^C]4[K:treble] C4 | x8 | D4 D4 | z4 D4 | D4 D4 | %21
 D4 z4 | D4 D4 | z4 D4 | D4 D4 | D4 z4 | D4 D4 | x8 | [E,G,^C]4[K:treble] C4 | x8 | x8 | x8 | %32
 [E,G,^C]4[K:treble] C4 |[M:8/4] x16 |] %34
V:4
 x8 | x8 | x8 | x8 |[M:2/4] x4 |[M:4/4] x8 | x8 | x8 | x8 |[M:2/4] x4 |[M:4/4] x8 | x8 | A,,4 z4 | %13
 x8 | x8 | x8 | A,,4 z4 | x8 | x8 | x8 | x8 | x8 | x8 | x8 | x8 | x8 | x8 | x8 | A,,4 z4 | x8 | %30
 x8 | x8 | A,,4 z4 |[M:8/4] x16 |] %34

